X:1
T:James Gibb editions
T:Flow my tears - Dowland
T:#
%%score [ 1 2 ]
L:1/8
Q:1/4=108
M:4/4
K:Eb
V:1 treble nm="Soprano" snm="S"
V:2 bass nm="Bass" snm="B"
V:1
"^John Dowland\n(1563-1626)""^Flow my tears" c6 (BA) | G4 e4- | e4 d2 c2 | =B8 | c4 G4- | %5
w: ~Flow my *|tears fall|* from your|springs!|Ex- iled|
w: ~Down vain *|lights, shine|* you no|more!|No nights|
[M:4/4] G2 G2 B2 B2 | A4 F4 | G6 d2 | e4 c4 | d4 =B4 | c2 e3 d c2 | =B4 e4 | d2 c2 c4- | %13
w: * for ev- er,|let me|mourn; Where|night's black|bird her|sad in- fa- my|sings, There|let me live|
w: * are dark e-|nough for|those That|in des-|pair their|lost for- tunes de-|plore. Light|doth but shame|
 c2 (=B=A B4) | c16 :: e6 d2 | c2 B2 e4- | e2 (dc) d4 | e4 B4 | z2 c4 =B2 | c2 A2 G4 | z2 F2 A4 | %22
w: * for\- * *|lorn.|~Ne- ver|may my woes|* be * re-|liev- ed,|Since pi-|ty is fled;|And tears,|
w: * dis\- * *|close.|~From the|high- est spire|* of * con-|tent- ment,|My for-|tune is thrown;|And fear,|
 z2 A2 c4 | z2 c2 e4 | z2 B2 d3 e | f4 z2 F2 | A3 B c4 | z2 e4 d2 | e3 d (cB) c2 | =B16 :: =B6 c2 | %31
w: and sighs,|and groans|my wea- ry|days, my|wea- ry days|Of all|joys have de\- * pri-|ved.|~Hark! you|
w: and grief,|and pain|for my de-|serts, for|my de- serts,|Are my|hopes, since hope * is|gone.||
 d4 e4 | d2 c2 c4- | c4 =B4 | c6 e2 | d2 e2 c4 | =B8 | z8 | z4 g4- | g2 d2 f4- | f2 c2 e4 | d4 c4 | %42
w: sha- dows|that in dark\-|* ness|dwell, learn|to con- temn|light;||Hap\-|* py, hap\-|* py they|that in|
w: |||||||||||
 =B4 e4 | d2 c2 c4- | c2 (=B=A B4) | c16 :| %46
w: hell feel|not the world's|* de\- * *|spite.|
w: ||||
V:2
 C,8 | C,8 | A,6 A,2 | G,6 G,2 | C,6 C,2 |[M:4/4] E,6 E,2 | F,4 A,4 | G,6 G,2 | C,6 CC | B,4 G,4 | %10
w: ~Flow|tears|from your|springs! Ex-|iled for|ev- er,|let me|mourn; Where|night's black bird|her sad|
w: ~Down|lights,|shine no|more! No|nights are|dark e-|nough for|those That|in des- pair|their lost|
 A,6 A,A, | G,4 E,4 | F,4 A,4 | G,6 G,2 | C,16 :: E,8- | E,4 G,4 | F,6 F,2 | E,4 z2 G,2 | %19
w: in- fa- my|sings, There|let me|live for-|lorn.|~Ne\-|* ver|may my|woes, my|
w: for- tunes de-|plore. Light|doth but|shame dis-|close.|~From|* the|high- est|spire, high'st|
 E,2 C,C, G,4 | C,2 F,2 F,2 =E,2 | F,4 z2 F,,2 | A,,4 z2 A,,2 | C,4 z2 C,2 | E,4 z2 B,,2 | %25
w: woes be re- lie-|ved, Since pi- ty~is|fled; And|tears, and|sighs, and|groans my|
w: spire of con- tent-|ment, My for- tune's|thrown; And|fear, and|grief, and|pain for|
 D,3 E, F,4 | z2 F,,2 A,,3 B,, | C,6 =B,,2 | C,4 A,,3 A,, | G,,16 :: G,8 | G,6 G,2 | G,8- | %33
w: wea- ry days,|my wea- ry|days All|joys have de-|prived.|~Hark!|that in|dark\-|
w: my de- serts,|for my de-|serts, Are|hopes, hope is|gone.||||
 G,4 G,4 | C,6 C2 | B,2 G,2 A,4 | G,8 | G,6 D,2 | E,8 | D,8 | C,8 | B,,4 A,,4 | G,,4 E,4 | %43
w: * ness|dwell, learn|to con- temn|light;|Hap- py,|hap-|py|they|that in|hell feel|
w: ||||||||||
 F,4 A,4 | G,6 G,2 | C,16 :| %46
w: not the|world's de-|spite.|
w: |||

